resources/images/close.svg

<?xml version="1.0" encoding="UTF-8"?>
<svg width="13px" height="13px" viewBox="0 0 13 13" version="1.1" xmlns="http://www.w3.org/2000/svg" xmlns:xlink="http://www.w3.org/1999/xlink">
    <!-- Generator: sketchtool 55.2 (78181) - https://sketchapp.com -->
    <title>Close</title>
    <desc>Created with sketchtool.</desc>
    <g id="search-results" stroke="none" stroke-width="1" fill="none" fill-rule="evenodd">
        <g id="share-dropdown" transform="translate(-737.000000, -470.000000)">
            <g id="save-options" transform="translate(526.000000, 445.000000)">
                <g id="Icons-/-actions-/-close" transform="translate(201.000000, 16.000000)">
                    <g id="round-cancel-24px">
                        <g id="Bounding_Boxes" opacity="0.87">
                            <polygon id="Shape" points="0 0 32 0 32 32 0 32"></polygon>
                        </g>
                        <g id="Rounded" transform="translate(10.000000, 9.000000)" fill="#3D4564" fill-rule="nonzero">
                            <path d="M12.4,12.4 L12.4,12.4 C11.88,12.92 11.04,12.92 10.52,12.4 L6.66666667,8.54666667 L2.81333333,12.4 C2.29333333,12.92 1.45333333,12.92 0.933333333,12.4 L0.933333333,12.4 C0.413333333,11.88 0.413333333,11.04 0.933333333,10.52 L4.78666667,6.66666667 L0.933333333,2.81333333 C0.413333333,2.29333333 0.413333333,1.45333333 0.933333333,0.933333333 L0.933333333,0.933333333 C1.45333333,0.413333333 2.29333333,0.413333333 2.81333333,0.933333333 L6.66666667,4.78666667 L10.52,0.933333333 C11.04,0.413333333 11.88,0.413333333 12.4,0.933333333 L12.4,0.933333333 C12.92,1.45333333 12.92,2.29333333 12.4,2.81333333 L8.54666667,6.66666667 L12.4,10.52 C12.9066667,11.0266667 12.9066667,11.88 12.4,12.4 Z" id="Shape"></path>
                        </g>
                    </g>
                </g>
            </g>
        </g>
    </g>
</svg>

<svg width="13" height="13" xmlns="http://www.w3.org/2000/svg"><g fill="none" fill-rule="evenodd"><path d="M-10-9h32v32h-32z" opacity=".87"/><path d="M12.4 12.4c-.52.52-1.36.52-1.88 0L6.667 8.547 2.813 12.4c-.52.52-1.36.52-1.88 0-.52-.52-.52-1.36 0-1.88l3.854-3.853L.933 2.813c-.52-.52-.52-1.36 0-1.88.52-.52 1.36-.52 1.88 0l3.854 3.854L10.52.933c.52-.52 1.36-.52 1.88 0 .52.52.52 1.36 0 1.88L8.547 6.667 12.4 10.52c.507.507.507 1.36 0 1.88z" fill="#3D4564" fill-rule="nonzero"/></g></svg>
